svg/24/download.svg

<svg width="24" height="24" viewBox="0 0 24 24" fill="currentColor" xmlns="http://www.w3.org/2000/svg"><path d="M12 3C12.4142 3 12.75 3.33579 12.75 3.75V15.1893L16.7197 11.2197C17.0126 10.9268 17.4874 10.9268 17.7803 11.2197C18.0732 11.5126 18.0732 11.9874 17.7803 12.2803L12.5303 17.5303C12.2374 17.8232 11.7626 17.8232 11.4697 17.5303L6.21967 12.2803C5.92678 11.9874 5.92678 11.5126 6.21967 11.2197C6.51256 10.9268 6.98744 10.9268 7.28033 11.2197L11.25 15.1893V3.75C11.25 3.33579 11.5858 3 12 3Z"/><path d="M3.75 19.5C3.33579 19.5 3 19.8358 3 20.25C3 20.6642 3.33579 21 3.75 21H20.25C20.6642 21 21 20.6642 21 20.25C21 19.8358 20.6642 19.5 20.25 19.5H3.75Z"/></svg>

<svg xmlns="http://www.w3.org/2000/svg" width="24" height="24" fill="currentColor" viewBox="0 0 24 24">
  <path d="M12 3a.75.75 0 0 1 .75.75v11.44l3.97-3.97a.75.75 0 1 1 1.06 1.06l-5.25 5.25a.75.75 0 0 1-1.06 0l-5.25-5.25a.75.75 0 1 1 1.06-1.06l3.97 3.97V3.75A.75.75 0 0 1 12 3ZM3.75 19.5a.75.75 0 0 0 0 1.5h16.5a.75.75 0 0 0 0-1.5H3.75Z"/>
</svg>
